X:14
T:James's Reel Birthday
M:4/4
L:1/8
R:Reel
C:Gris Sanderson
Q:450
N:A tune for James written on his18th birthday.
K:Em
A2||B2eB gBea|gedB AdBA|B2eB gBea|gedB~A2Ad|
B2eB gBea|gedB GABA|GEDB,~B,2B,D|1A,B,DEA2DA:|2A,B,DGE2EF||
||G3F3E2|~E2ED EGDE|GABd ~A2AB|dABd e2ef|
g3f3e2|1a4a2gf|gfed~B2eB|gedBA2GF:|
|2a4a2ga|bgfd edBe|gABge2A2||
